;FLAVOR:Marlin
;TIME:1032
;Filament used: 0.57773m
;Layer height: 0.2
;MINX:67.525
;MINY:102.52
;MINZ:0.2
;MAXX:167.481
;MAXY:132.483
;MAXZ:9.6
;Generated with Cura_SteamEngine 5.2.2
M140 S50
M105
M190 S50
M104 S200
M105
M109 S200
M82 ;absolute extrusion mode
; Ender 3 Custom Start G-code
G92 E0 ; Reset Extruder
G28 ; Home all axes
G1 Z2.0 F3000 ; Move Z Axis up little to prevent scratching of Heat Bed
G1 X0.1 Y20 Z0.3 F5000.0 ; Move to start position
G1 X0.1 Y200.0 Z0.3 F1500.0 E15 ; Draw the first line
G1 X0.4 Y200.0 Z0.3 F5000.0 ; Move to side a little
G1 X0.4 Y20 Z0.3 F1500.0 E30 ; Draw the second line
G92 E0 ; Reset Extruder
G1 Z2.0 F3000 ; Move Z Axis up little to prevent scratching of Heat Bed
G1 X5 Y20 Z0.3 F5000.0 ; Move over to prevent blob squish
G92 E0
G92 E0
G1 F2700 E-5
;LAYER_COUNT:48
;LAYER:0
M107
G0 F6000 X126.388 Y111.409 Z0.2
;TYPE:SKIRT
G1 F2700 E0
G1 F1200 X127.001 Y110.722 E0.03062
G1 X127.671 Y110.09 E0.06126
G1 X128.393 Y109.519 E0.09187
G1 X129.162 Y109.013 E0.12249
G1 X129.972 Y108.576 E0.1531
G1 X130.817 Y108.21 E0.18373
G1 X131.691 Y107.919 E0.21437
G1 X132.776 Y107.67 E0.25139
G1 X134.134 Y107.433 E0.29724
G1 X136.577 Y106.937 E0.38016
G1 X139.05 Y106.359 E0.46463
G1 X141.517 Y105.708 E0.54949
G1 X143.932 Y104.999 E0.6332
G1 X146.407 Y104.194 E0.71976
G1 X147.665 Y103.758 E0.76405
G1 X148.06 Y103.629 E0.77787
G1 X148.627 Y103.457 E0.79757
G1 X149.519 Y103.229 E0.8282
G1 X150.369 Y103.085 E0.85687
G1 X151.073 Y103.006 E0.88043
G1 X151.642 Y102.958 E0.89942
G1 X152.562 Y102.92 E0.93005
G1 X153.435 Y102.958 E0.95911
G1 X154.211 Y103.037 E0.98506
G1 X154.79 Y103.114 E1.00448
G1 X155.697 Y103.274 E1.03512
G1 X156.546 Y103.501 E1.06435
G1 X157.274 Y103.74 E1.08983
G1 X157.827 Y103.941 E1.1094
G1 X158.678 Y104.292 E1.14002
G1 X159.469 Y104.702 E1.16965
G1 X160.085 Y105.065 E1.19343
G1 X160.585 Y105.38 E1.21309
G1 X161.342 Y105.905 E1.24373
G1 X162.019 Y106.464 E1.27293
G1 X162.573 Y106.977 E1.29804
G1 X162.991 Y107.389 E1.31756
G1 X163.618 Y108.063 E1.34818
G1 X164.146 Y108.736 E1.37663
G1 X164.609 Y109.398 E1.4035
G1 X164.921 Y109.878 E1.42254
G1 X165.388 Y110.671 E1.45315
G1 X165.758 Y111.438 E1.48147
G1 X166.054 Y112.153 E1.50721
G1 X166.27 Y112.728 E1.52764
G1 X166.556 Y113.604 E1.55829
G1 X166.747 Y114.406 E1.58571
G1 X166.888 Y115.187 E1.61211
G1 X166.971 Y115.751 E1.63107
G1 X167.065 Y116.666 E1.66166
G1 X167.082 Y117.524 E1.6902
G1 X167.054 Y118.282 E1.71543
G1 X167.015 Y118.862 E1.73477
G1 X166.914 Y119.777 E1.76539
G1 X166.741 Y120.646 E1.79486
G1 X166.547 Y121.394 E1.82056
G1 X166.379 Y121.966 E1.84039
G1 X166.082 Y122.837 E1.87099
G1 X165.737 Y123.623 E1.89954
G1 X165.403 Y124.285 E1.9242
G1 X165.121 Y124.803 E1.94382
G1 X164.646 Y125.592 E1.97445
G1 X164.117 Y126.321 E2.00441
G1 X163.63 Y126.917 E2.03001
G1 X163.25 Y127.354 E2.04927
G1 X162.616 Y128.022 E2.0799
G1 X161.959 Y128.607 E2.10916
G1 X161.414 Y129.039 E2.13229
G1 X160.922 Y129.407 E2.15273
G1 X160.161 Y129.926 E2.18336
G1 X159.364 Y130.375 E2.21379
G1 X158.738 Y130.681 E2.23696
G1 X158.193 Y130.929 E2.25688
G1 X157.34 Y131.274 E2.28748
G1 X156.497 Y131.533 E2.31681
G1 X155.741 Y131.719 E2.34271
G1 X155.15 Y131.844 E2.3628
G1 X154.242 Y131.995 E2.39342
G1 X153.396 Y132.064 E2.42165
G1 X152.663 Y132.083 E2.44604
G1 X152.061 Y132.08 E2.46606
G1 X151.142 Y132.035 E2.49666
G1 X150.27 Y131.918 E2.52592
G1 X149.674 Y131.808 E2.54608
G1 X146.817 Y131.214 E2.64314
G1 X144.365 Y130.779 E2.72596
G1 X140.971 Y130.288 E2.84002
G1 X139.955 Y130.089 E2.87446
G1 X138.936 Y129.838 E2.90936
G1 X136.326 Y129.236 E2.99845
G1 X133.846 Y128.738 E3.08258
G1 X132.804 Y128.559 E3.11775
G1 X131.905 Y128.364 E3.14835
G1 X131.025 Y128.091 E3.17899
G1 X130.173 Y127.743 E3.2096
G1 X129.354 Y127.323 E3.24021
G1 X128.574 Y126.833 E3.27085
G1 X127.84 Y126.277 E3.30148
G1 X127.157 Y125.66 E3.33209
G1 X126.53 Y124.985 E3.36273
G1 X125.965 Y124.259 E3.39333
G1 X125.464 Y123.487 E3.42394
G1 X125.032 Y122.674 E3.45456
G1 X124.672 Y121.826 E3.4852
G1 X124.387 Y120.951 E3.51581
G1 X124.179 Y120.054 E3.54644
G1 X124.05 Y119.142 E3.57707
G1 X124.001 Y118.223 E3.60768
G1 X124.031 Y117.303 E3.6383
G1 X124.141 Y116.389 E3.66891
G1 X124.33 Y115.488 E3.69953
G1 X124.596 Y114.606 E3.73017
G1 X124.938 Y113.752 E3.76077
G1 X125.353 Y112.93 E3.7914
G1 X125.838 Y112.147 E3.82203
G1 X126.388 Y111.409 E3.85264
G0 F6000 X126.966 Y111.347
G1 F1200 X127.594 Y110.699 E3.88266
G1 X128.277 Y110.108 E3.9127
G1 X129.01 Y109.58 E3.94274
G1 X129.787 Y109.119 E3.97279
G1 X130.601 Y108.729 E4.00282
G1 X131.447 Y108.412 E4.03286
G1 X132.317 Y108.171 E4.06289
G1 X132.845 Y108.064 E4.08081
G1 X134.211 Y107.825 E4.12693
G1 X136.676 Y107.325 E4.21059
G1 X139.138 Y106.75 E4.29468
G1 X141.626 Y106.093 E4.38027
G1 X144.063 Y105.377 E4.46475
G1 X146.505 Y104.584 E4.55014
G1 X147.796 Y104.136 E4.59559
G1 X148.743 Y103.84 E4.62859
G1 X149.618 Y103.617 E4.65863
G1 X150.42 Y103.482 E4.68568
G1 X151.107 Y103.404 E4.70867
G1 X151.676 Y103.356 E4.72766
G1 X152.578 Y103.32 E4.75769
G1 X153.401 Y103.357 E4.78509
G1 X154.159 Y103.433 E4.81043
G1 X154.738 Y103.51 E4.82985
G1 X155.627 Y103.669 E4.85989
G1 X156.427 Y103.883 E4.88744
G1 X157.137 Y104.116 E4.91229
G1 X157.69 Y104.317 E4.93186
G1 X158.525 Y104.662 E4.96191
G1 X159.271 Y105.049 E4.98986
G1 X159.872 Y105.404 E5.01308
G1 X160.372 Y105.719 E5.03273
G1 X161.114 Y106.234 E5.06277
G1 X161.752 Y106.762 E5.09032
G1 X162.292 Y107.262 E5.1148
G1 X162.71 Y107.674 E5.13432
G1 X163.325 Y108.335 E5.16435
G1 X163.822 Y108.97 E5.19117
G1 X164.273 Y109.616 E5.21737
G1 X164.585 Y110.096 E5.23641
G1 X165.043 Y110.874 E5.26644
G1 X165.391 Y111.597 E5.29313
G1 X165.68 Y112.294 E5.31822
G1 X165.896 Y112.869 E5.33865
G1 X166.175 Y113.728 E5.36869
G1 X166.355 Y114.484 E5.39454
G1 X166.492 Y115.245 E5.42026
G1 X166.575 Y115.809 E5.43922
G1 X166.667 Y116.707 E5.46924
G1 X166.682 Y117.515 E5.49612
G1 X166.655 Y118.255 E5.52075
G1 X166.616 Y118.835 E5.54008
G1 X166.516 Y119.733 E5.57013
G1 X166.352 Y120.552 E5.59792
G1 X166.164 Y121.281 E5.62296
G1 X165.996 Y121.853 E5.64278
G1 X165.703 Y122.708 E5.67284
G1 X165.378 Y123.448 E5.69973
G1 X165.051 Y124.094 E5.72381
G1 X164.769 Y124.612 E5.74342
G1 X164.303 Y125.385 E5.77345
G1 X163.803 Y126.072 E5.80171
G1 X163.328 Y126.655 E5.82672
G1 X162.948 Y127.092 E5.84598
G1 X162.326 Y127.747 E5.87602
G1 X161.705 Y128.297 E5.90361
G1 X161.174 Y128.719 E5.92617
G1 X160.682 Y129.087 E5.94661
G1 X159.936 Y129.595 E5.97663
G1 X159.183 Y130.018 E6.00535
G1 X158.573 Y130.317 E6.02795
G1 X158.028 Y130.565 E6.04786
G1 X157.19 Y130.902 E6.0779
G1 X156.395 Y131.146 E6.10556
G1 X155.659 Y131.327 E6.13077
G1 X155.068 Y131.452 E6.15086
G1 X154.177 Y131.6 E6.1809
G1 X153.38 Y131.664 E6.2075
G1 X152.665 Y131.683 E6.23129
G1 X152.063 Y131.68 E6.25131
G1 X151.161 Y131.635 E6.28135
G1 X150.339 Y131.524 E6.30894
G1 X149.755 Y131.417 E6.32868
G1 X146.864 Y130.816 E6.42689
G1 X144.427 Y130.384 E6.50921
G1 X141.029 Y129.892 E6.62341
G1 X140.05 Y129.701 E6.65658
G1 X138.97 Y129.435 E6.69358
G1 X136.43 Y128.849 E6.78028
G1 X133.915 Y128.344 E6.8656
G1 X132.872 Y128.165 E6.9008
G1 X131.99 Y127.972 E6.93082
G1 X131.128 Y127.703 E6.96086
G1 X130.293 Y127.358 E6.99091
G1 X129.492 Y126.941 E7.02094
G1 X128.731 Y126.454 E7.05099
G1 X128.016 Y125.903 E7.08102
G1 X127.353 Y125.29 E7.11105
G1 X126.746 Y124.621 E7.14109
G1 X126.202 Y123.9 E7.17113
G1 X125.722 Y123.135 E7.20117
G1 X125.313 Y122.33 E7.2312
G1 X124.976 Y121.492 E7.26125
G1 X124.715 Y120.627 E7.2913
G1 X124.531 Y119.743 E7.32133
G1 X124.426 Y118.846 E7.35137
G1 X124.401 Y117.943 E7.38141
G1 X124.456 Y117.042 E7.41144
G1 X124.591 Y116.149 E7.44147
G1 X124.804 Y115.271 E7.47152
G1 X125.093 Y114.416 E7.50154
G1 X125.457 Y113.589 E7.53159
G1 X125.893 Y112.799 E7.56161
G1 X126.397 Y112.049 E7.59166
G1 X126.966 Y111.347 E7.62172
G1 F2700 E2.62172
G0 F6000 X110.27 Y115.552
G1 F2700 E7.62172
G1 F1200 X110.458 Y116.435 E7.65174
G1 X110.566 Y117.332 E7.68179
G1 X110.595 Y118.234 E7.71181
G1 X110.544 Y119.136 E7.74186
G1 X110.413 Y120.03 E7.77191
G1 X110.204 Y120.908 E7.80193
G1 X109.918 Y121.765 E7.83198
G1 X109.557 Y122.593 E7.86202
G1 X109.125 Y123.385 E7.89203
G1 X108.624 Y124.137 E7.92208
G1 X108.058 Y124.841 E7.95212
G1 X107.433 Y125.492 E7.98214
G1 X106.752 Y126.086 E8.0122
G1 X106.021 Y126.617 E8.04225
G1 X105.247 Y127.081 E8.07226
G1 X104.434 Y127.475 E8.10231
G1 X103.59 Y127.795 E8.13233
G1 X102.72 Y128.04 E8.16239
G1 X102.119 Y128.161 E8.18278
G1 X101.123 Y128.332 E8.2164
G1 X98.632 Y128.829 E8.30088
G1 X96.087 Y129.415 E8.38774
G1 X95.007 Y129.687 E8.42478
G1 X93.925 Y129.898 E8.46145
G1 X92.209 Y130.137 E8.51907
G1 X89.665 Y130.543 E8.60476
G1 X85.951 Y131.267 E8.73061
G1 X85.609 Y131.341 E8.74225
G1 X84.813 Y131.496 E8.76922
G1 X83.919 Y131.628 E8.79928
G1 X83.063 Y131.678 E8.8278
G1 X82.347 Y131.682 E8.85161
G1 X81.778 Y131.668 E8.87054
G1 X80.877 Y131.606 E8.90058
G1 X80.087 Y131.484 E8.92717
G1 X79.337 Y131.327 E8.95266
G1 X78.766 Y131.187 E8.97221
G1 X77.899 Y130.933 E9.00226
G1 X77.162 Y130.649 E9.02853
G1 X76.512 Y130.357 E9.05223
G1 X75.971 Y130.094 E9.07224
G1 X75.178 Y129.664 E9.10224
G1 X74.473 Y129.2 E9.13031
G1 X73.851 Y128.738 E9.15608
G1 X73.405 Y128.384 E9.17502
G1 X72.723 Y127.792 E9.20506
G1 X72.171 Y127.226 E9.23135
G1 X71.646 Y126.625 E9.25789
G1 X71.293 Y126.193 E9.27645
G1 X70.753 Y125.469 E9.30649
G1 X70.331 Y124.792 E9.33302
G1 X69.944 Y124.087 E9.35977
G1 X69.686 Y123.576 E9.37881
G1 X69.315 Y122.753 E9.40884
G1 X69.042 Y121.979 E9.43614
G1 X68.838 Y121.284 E9.46023
G1 X68.693 Y120.729 E9.47931
G1 X68.504 Y119.846 E9.50934
G1 X68.402 Y119.055 E9.53587
G1 X68.349 Y118.327 E9.56014
G1 X68.324 Y117.708 E9.58075
G1 X68.328 Y116.805 E9.61078
G1 X68.402 Y115.972 E9.6386
G1 X68.513 Y115.216 E9.66401
G1 X68.616 Y114.643 E9.68337
G1 X68.815 Y113.763 E9.71338
G1 X69.057 Y112.994 E9.7402
G1 X69.315 Y112.309 E9.76454
G1 X69.531 Y111.783 E9.78345
G1 X69.91 Y110.964 E9.81347
G1 X70.284 Y110.305 E9.83867
G1 X70.699 Y109.658 E9.86424
G1 X71.066 Y109.128 E9.88568
G1 X71.613 Y108.409 E9.91573
G1 X72.202 Y107.761 E9.94485
G1 X72.681 Y107.288 E9.96724
G1 X73.102 Y106.895 E9.9864
G1 X73.789 Y106.308 E10.01645
G1 X74.471 Y105.82 E10.04435
G1 X75.093 Y105.424 E10.06887
G1 X75.592 Y105.128 E10.08817
G1 X76.389 Y104.702 E10.11822
G1 X77.187 Y104.361 E10.14709
G1 X77.874 Y104.111 E10.1714
G1 X78.424 Y103.93 E10.19066
G1 X79.294 Y103.686 E10.22071
G1 X80.132 Y103.527 E10.24908
G1 X80.818 Y103.436 E10.2721
G1 X81.405 Y103.375 E10.29173
G1 X82.306 Y103.321 E10.32175
G1 X83.14 Y103.343 E10.3495
G1 X83.839 Y103.399 E10.37282
G1 X84.442 Y103.466 E10.393
G1 X85.335 Y103.606 E10.42307
G1 X86.15 Y103.806 E10.45098
G1 X86.824 Y104.011 E10.47441
G1 X89.024 Y104.755 E10.55165
G1 X91.496 Y105.54 E10.63792
G1 X93.919 Y106.237 E10.72177
G1 X96.396 Y106.873 E10.80683
G1 X98.879 Y107.437 E10.89152
G1 X101.367 Y107.928 E10.97587
G1 X102.082 Y108.048 E10.99998
G1 X102.965 Y108.237 E11.03001
G1 X103.829 Y108.503 E11.06008
G1 X104.665 Y108.844 E11.09011
G1 X105.467 Y109.258 E11.12013
G1 X106.23 Y109.741 E11.15017
G1 X106.947 Y110.29 E11.1802
G1 X107.613 Y110.9 E11.21024
G1 X108.223 Y111.567 E11.2403
G1 X108.77 Y112.285 E11.27032
G1 X109.253 Y113.048 E11.30036
G1 X109.666 Y113.852 E11.33042
G1 X110.006 Y114.688 E11.36044
G1 X110.27 Y115.552 E11.39049
G1 F2700 E6.39049
G0 F6000 X74.033 Y105.151
G1 F2700 E11.39049
G1 F1200 X74.685 Y104.736 E11.41619
G1 X75.184 Y104.44 E11.43549
G1 X76.01 Y103.997 E11.46666
G1 X76.904 Y103.613 E11.49903
G1 X77.624 Y103.351 E11.52451
G1 X78.174 Y103.17 E11.54377
G1 X79.077 Y102.915 E11.57498
G1 X80.016 Y102.736 E11.60677
G1 X80.735 Y102.64 E11.6309
G1 X81.322 Y102.579 E11.65053
G1 X82.258 Y102.522 E11.68171
G1 X83.194 Y102.545 E11.71286
G1 X83.928 Y102.604 E11.73735
G1 X84.531 Y102.671 E11.75753
G1 X85.458 Y102.814 E11.78872
G1 X86.373 Y103.037 E11.82005
G1 X87.08 Y103.253 E11.84463
G1 X89.302 Y104.004 E11.92265
G1 X91.706 Y104.768 E12.00654
G1 X94.161 Y105.474 E12.09151
G1 X96.561 Y106.09 E12.17392
G1 X99.067 Y106.659 E12.25939
G1 X101.478 Y107.135 E12.34113
G1 X102.215 Y107.259 E12.36599
G1 X103.132 Y107.454 E12.39717
G1 X104.03 Y107.726 E12.42837
G1 X104.901 Y108.073 E12.45956
G1 X105.739 Y108.493 E12.49073
G1 X106.539 Y108.983 E12.52194
G1 X107.294 Y109.54 E12.55314
G1 X107.999 Y110.158 E12.58433
G1 X108.648 Y110.835 E12.61552
G1 X109.238 Y111.564 E12.64671
G1 X109.763 Y112.341 E12.6779
G1 X110.22 Y113.16 E12.70909
G1 X110.606 Y114.015 E12.74029
G1 X110.918 Y114.9 E12.77151
G1 X111.153 Y115.807 E12.80267
G1 X111.31 Y116.732 E12.83387
G1 X111.387 Y117.667 E12.86508
G1 X111.385 Y118.605 E12.89628
G1 X111.303 Y119.539 E12.92746
G1 X111.141 Y120.463 E12.95866
G1 X110.901 Y121.369 E12.98983
G1 X110.585 Y122.253 E13.02106
G1 X110.195 Y123.105 E13.05222
G1 X109.734 Y123.922 E13.08342
G1 X109.205 Y124.696 E13.11461
G1 X108.612 Y125.423 E13.14581
G1 X107.959 Y126.096 E13.177
G1 X107.251 Y126.711 E13.20819
G1 X106.493 Y127.264 E13.2394
G1 X105.691 Y127.75 E13.27059
G1 X104.85 Y128.166 E13.3018
G1 X103.977 Y128.509 E13.33299
G1 X103.078 Y128.776 E13.36418
G1 X102.255 Y128.95 E13.39216
G1 X101.231 Y129.126 E13.42672
G1 X98.798 Y129.611 E13.50923
G1 X96.315 Y130.183 E13.59398
G1 X95.203 Y130.463 E13.63212
G1 X94.036 Y130.691 E13.67167
G1 X92.29 Y130.935 E13.73031
G1 X89.804 Y131.331 E13.81403
G1 X86.106 Y132.052 E13.93935
G1 X85.541 Y132.171 E13.95855
G1 X84.964 Y132.282 E13.97809
G1 X84.036 Y132.42 E14.0093
G1 X83.077 Y132.478 E14.04125
G1 X82.327 Y132.482 E14.0662
G1 X81.758 Y132.468 E14.08513
G1 X80.823 Y132.405 E14.1163
G1 X79.935 Y132.27 E14.14617
G1 X79.147 Y132.104 E14.17296
G1 X78.576 Y131.964 E14.19251
G1 X77.675 Y131.702 E14.22372
G1 X76.845 Y131.384 E14.25328
G1 X76.163 Y131.077 E14.27816
G1 X75.622 Y130.814 E14.29816
G1 X74.796 Y130.368 E14.32939
G1 X74.006 Y129.849 E14.36082
G1 X73.353 Y129.365 E14.38786
G1 X72.907 Y129.011 E14.4068
G1 X72.198 Y128.397 E14.43799
G1 X71.577 Y127.762 E14.46753
G1 X71.026 Y127.131 E14.4954
G1 X70.673 Y126.699 E14.51395
G1 X70.111 Y125.948 E14.54515
G1 X69.636 Y125.188 E14.57496
G1 X69.23 Y124.448 E14.60303
G1 X68.972 Y123.937 E14.62207
G1 X68.585 Y123.082 E14.65329
G1 X68.277 Y122.214 E14.68392
G1 X68.064 Y121.487 E14.70912
G1 X67.919 Y120.932 E14.72819
G1 X67.721 Y120.015 E14.7594
G1 X67.605 Y119.126 E14.78922
G1 X67.55 Y118.359 E14.81479
G1 X67.525 Y117.74 E14.8354
G1 X67.527 Y116.802 E14.86659
G1 X67.609 Y115.868 E14.89778
G1 X67.726 Y115.075 E14.92444
G1 X67.829 Y114.502 E14.9438
G1 X68.034 Y113.587 E14.97499
G1 X68.305 Y112.723 E15.00511
G1 X68.575 Y112.005 E15.03062
G1 X68.791 Y111.479 E15.04953
G1 X69.183 Y110.628 E15.0807
G1 X69.603 Y109.885 E15.10908
G1 X70.042 Y109.203 E15.13606
G1 X70.409 Y108.673 E15.1575
G1 X70.975 Y107.925 E15.1887
G1 X71.633 Y107.198 E15.22131
G1 X72.135 Y106.703 E15.24476
G1 X72.556 Y106.31 E15.26392
G1 X73.268 Y105.7 E15.2951
G1 X74.033 Y105.151 E15.32642
G0 F6000 X74.252 Y105.485
G1 F1200 X74.889 Y105.08 E15.35153
G1 X75.388 Y104.784 E15.37082
G1 X76.2 Y104.349 E15.40146
G1 X77.046 Y103.987 E15.43207
G1 X77.749 Y103.731 E15.45695
G1 X78.299 Y103.55 E15.47621
G1 X79.186 Y103.301 E15.50685
G1 X80.074 Y103.131 E15.53692
G1 X80.776 Y103.038 E15.56048
G1 X81.363 Y102.977 E15.5801
G1 X82.282 Y102.921 E15.61073
G1 X83.167 Y102.944 E15.64017
G1 X83.884 Y103.002 E15.6641
G1 X84.487 Y103.069 E15.68428
G1 X85.396 Y103.21 E15.71487
G1 X86.261 Y103.421 E15.74449
G1 X86.952 Y103.632 E15.76852
G1 X89.163 Y104.379 E15.84614
G1 X91.622 Y105.161 E15.93196
G1 X94.023 Y105.851 E16.01505
G1 X96.478 Y106.481 E16.09935
G1 X98.973 Y107.048 E16.18445
G1 X101.439 Y107.535 E16.26805
G1 X102.148 Y107.654 E16.29196
G1 X103.049 Y107.845 E16.3226
G1 X103.929 Y108.114 E16.3532
G1 X104.783 Y108.459 E16.38384
G1 X105.604 Y108.876 E16.41447
G1 X106.386 Y109.362 E16.44509
G1 X107.122 Y109.915 E16.47571
G1 X107.807 Y110.53 E16.50633
G1 X108.437 Y111.201 E16.53694
G1 X109.006 Y111.925 E16.56757
G1 X109.51 Y112.696 E16.5982
G1 X109.945 Y113.507 E16.62881
G1 X110.309 Y114.353 E16.65944
G1 X110.597 Y115.227 E16.69005
